X:2045
T:Forget Me Not
T:Gerry Cronin's
T:Larry Redican's
O:england
C:Larry Redican
R:reel
D:Sean Smyth: The Blue Fiddle
M:C|
K:C
c2Bc AGED|CA,~A,2 G,A,CD|EGcd ecdc|Addc dfed|
c2Bc AGED|CA,~A,2 G,A,CD|EGce dBcA|GEDF ECEG:|
|:c2gc acgc|fdec dcAc|Gc~c2 Gcea|gece d2eg|
ae~e2 gede|cdec dcAG|EGce dBcA|GEDF ECEG:|
"variations"
|:c2ec AGED|CA,~A,2 G,A,CD|EGcd ecdc|Ad~d2 fded|
~c3G AGED|CA,~A,2 G,A,CD|EGce d2cA|GEDE C2EG:|
|:c2gc acgc|fdec dcAc|GccB cdea|gece defg|
agea gede|c2ec dcAG|EGce d2cA|GEDE C2EG:|


